Catalina-light/actions/16/window-pin.svg

<svg xmlns="http://www.w3.org/2000/svg" viewBox="0 0 16 16">
  <defs id="defs3051">
    <style type="text/css" id="current-color-scheme">
      .ColorScheme-Text {
        color:#363636;
      }
      </style>
  </defs>
 <path style="fill:currentColor;fill-opacity:1;stroke:none" 
     d="M 10,1 C 9.318811,1.6811903 8.930382,2.8976017 9.7226562,4.2265625 l -3.71875,2.4882813 C 5.5415504,6.5282868 5.0452627,6.3891837 4.5546875,6.3867188 3.9170225,6.3834871 3.546875,6.453125 3,7 L 5,9.4623633 2,13 1,15 3,14 6.5855761,11 9,13 C 9.968594,12.031406 9.7191553,11.055704 9.2851562,9.9960938 l 2.4882818,-3.71875 C 13.102398,7.0696177 14.31881,6.6811896 15,6 Z"
     class="ColorScheme-Text"
     />
</svg>

<svg viewBox="0 0 16 16" xmlns="http://www.w3.org/2000/svg">
<defs>
<style id="current-color-scheme" type="text/css">.ColorScheme-Text {
        color:#363636;
      }</style>
</defs>
<path class="ColorScheme-Text" d="m10 1c-0.68119 0.68119-1.0696 1.8976-0.27734 3.2266l-3.7188 2.4883c-0.46236-0.18656-0.95864-0.32566-1.4492-0.32812-0.63766-0.0032317-1.0078 0.066406-1.5547 0.61328l2 2.4624-3 3.5376-1 2 2-1 3.5856-3 2.4144 2c0.96859-0.96859 0.71916-1.9443 0.28516-3.0039l2.4883-3.7188c1.329 0.79227 2.5454 0.40385 3.2266-0.27734z" fill="currentColor"/>
</svg>
